static/logos/mapbox-glyph-color.svg

<svg width="50" height="50" viewBox="0 0 50 50" fill="none" xmlns="http://www.w3.org/2000/svg">
<g clip-path="url(#clip0_1_2063)">
<path d="M24.7515 0.514496C11.0815 0.514496 0 11.477 0 25.0001C0 38.5231 11.0815 49.4857 24.7515 49.4857C38.4214 49.4857 49.5029 38.5231 49.5029 25.0001C49.5029 11.477 38.4231 0.514496 24.7515 0.514496ZM36.501 31.0043C28.036 39.3767 12.9179 36.706 12.9179 36.706C12.9179 36.706 10.1895 21.7785 18.6807 13.3765C23.3855 8.72242 31.1824 8.91481 36.111 13.7612C41.0396 18.6076 41.2057 26.3485 36.501 31.0026V31.0043ZM27.5918 14.8648L25.1694 19.7952L20.1867 22.1913L25.1694 24.5873L27.5918 29.5177L30.0141 24.5873L34.9987 22.1913L30.0141 19.7952L27.5918 14.8648Z" fill="black"/>
</g>
<defs>
<clipPath id="clip0_1_2063">
<rect width="50" height="50" fill="white"/>
</clipPath>
</defs>
</svg>

<svg xmlns="http://www.w3.org/2000/svg" width="64" height="64" fill="none" viewBox="0 0 50 50"><g clip-path="url(#a)"><path fill="#000" d="M24.752.514C11.082.514 0 11.477 0 25c0 13.523 11.082 24.486 24.752 24.486 13.67 0 24.75-10.963 24.75-24.486 0-13.523-11.079-24.486-24.75-24.486ZM36.5 31.004c-8.465 8.373-23.583 5.702-23.583 5.702s-2.728-14.928 5.763-23.33c4.704-4.654 12.501-4.461 17.43.385 4.929 4.847 5.095 12.588.39 17.242v.001Zm-8.91-16.14-2.422 4.931-4.982 2.396 4.982 2.396 2.423 4.93 2.422-4.93L35 22.191l-4.985-2.396-2.422-4.93Z"/></g><defs><clipPath id="a"><path fill="#fff" d="M0 0h50v50H0z"/></clipPath></defs></svg>
